!!!COM: Mozart, Wolfgang Amadeus
!!!OPR: Quartet in F Major
!!!OTL:
!!!OMV: 4
!!!SCT: K 168
!!!SCA: Chronologisch-thematisches Verzeichnis sämtlicher Tonwerke Wolfgang Amade Mozarts (L. von Köchel; 1862, 2/1905, 3/1937, 1947)
!!!YOR: Breitkopf & Härtel Edition
!!!EED: Frances Bennion
!!!ENC: Frances Bennion
!!!CDT: 1756/1/27/-1791/12/5/
!!!OCY: Österreich
!!!YEC: Copyright (c) 1994, 2000 Center for Computer Assisted Research in the Humanities
!!!YEM: Rights to all derivative editions reserved.
!!!YEM: Refer to licensing agreement for further details.
!!!YEN: United States of America
**kern	**kern	**kern	**kern
*k[b-]	*k[b-]	*k[b-]	*k[b-]
*F:	*F:	*F:	*F:
*clefG	*clefG	*clefF	*clefC
*M2/4	*M2/4	*M2/4	*M2/4
*tb32	*tb32	*tb32	*tb32
=1	=1	=1	=1
2cc	2r	2r	2r
=2	=2	=2	=2
16a	2r	2r	2r
16b-	.	.	.
16a	.	.	.
16g	.	.	.
8f	.	.	.
8ff	.	.	.
=3	=3	=3	=3
16dd	2r	2r	2r
16ee	.	.	.
16dd	.	.	.
16cc	.	.	.
16b-	.	.	.
16cc	.	.	.
16b-	.	.	.
16a	.	.	.
=4	=4	=4	=4
16g	2r	2r	2r
16a	.	.	.
16g	.	.	.
16f	.	.	.
8e	.	.	.
8cc	.	.	.
=5	=5	=5	=5
16a	2f	2r	2r
16g	.	.	.
16f	.	.	.
16e	.	.	.
16f	.	.	.
16g	.	.	.
16a	.	.	.
16b	.	.	.
=6	=6	=6	=6
16cc	16e	2r	2r
16b	16f	.	.
16cc	16e	.	.
16dd	16d	.	.
16ee	8c	.	.
16ff	.	.	.
16gg	8cc	.	.
16ee	.	.	.
=7	=7	=7	=7
16ff	16a	2r	2r
16gg	16b-	.	.
16ff	16a	.	.
16ee	16g	.	.
16dd	16f	.	.
16ee	16g	.	.
16dd	16f	.	.
16cc	16e	.	.
=8	=8	=8	=8
16b	16d	2r	2r
16cc	16e	.	.
16b	16d	.	.
16a	16c	.	.
16g	8B	.	.
16a	.	.	.
16b	8f	.	.
16g	.	.	.
=9	=9	=9	=9
8cc	16e	2c	2r
.	16d	.	.
16e	16c	.	.
16d	16B	.	.
16e	16c	.	.
16f	16d	.	.
16g	16e	.	.
16e	16c	.	.
=10	=10	=10	=10
8c	16f	16A	2r
.	16e	16B-	.
16a	16f	16A	.
16b-	16g	16G	.
8cc	16a	8F	.
.	16b-	.	.
8a	16cc	8f	.
.	16a	.	.
=11	=11	=11	=11
8ff	16b-	16d	2r
.	16cc	16e	.
8f	16b-	16d	.
.	16a	16c	.
8r	16g	16B-	.
.	16a	16c	.
8dd	16g	16B-	.
.	16f	16A	.
=12	=12	=12	=12
16b-	8.e	16G	2r
16cc	.	16A	.
16b-	.	16G	.
16a	16f	16F	.
16g	16g	8E	.
16f	16a	.	.
8e	16b-	8c	.
.	16g	.	.
=13	=13	=13	=13
16f	8f	16A	2F
16e	.	16G	.
16f	8c	16A	.
16g	.	16B-	.
16a	8r	8c	.
16g	.	.	.
16a	8c	8f	.
16b-	.	.	.
=14	=14	=14	=14
16cc	16e	16g	16E
16b	16d	16a	16F
16cc	16e	16g	16E
16dd	16f	16f	16D
16ee	16g	16e	8C
16ff	16f	16d	.
16gg	16e	16c	8c
16ee	16g	16e	.
=15	=15	=15	=15
16ff	16cc	16a	16A
16gg	16dd	16b-	16B-
16ff	16cc	16a	16A
16ee	16b	16g	16G
16dd	16a	16f	16F
16ee	16b	16g	16G
16dd	16a	16f	16F
16cc	16g	16e	16E
=16	=16	=16	=16
16b	16f	16d	16D
16cc	16g	16e	16E
16b	16f	16d	16D
16a	16e	16c	16C
8g	16d	8B	8BB
.	16c	.	.
8ff	16B	8g	8G
.	16d	.	.
=17	=17	=17	=17
4ee	16e	16c	8C
.	16f	16d	.
.	16g	16e	4c
.	16e	16c	.
4r	16f	16d	.
.	16a	16f	.
.	16g	16e	[8B
.	16f	16d	.
=18	=18	=18	=18
2r	16e	16c	8B]
.	16g	16e	.
.	16f	16d	4A
.	16e	16c	.
.	16d	16B	.
.	16f	16d	.
.	16e	16c	8G#
.	16d	16B	.
=19	=19	=19	=19
2r	16c#	8e	8G
.	16A	.	.
.	16d	4d	8F
.	16f	.	.
.	16g	.	8E
.	16b-	.	.
.	16a	8c#	8A
.	16g	.	.
=20	=20	=20	=20
2aa	4f	16d	4D
.	.	16e	.
.	.	16f	.
.	.	16d	.
.	4r	16e	4C
.	.	16d	.
.	.	16e	.
.	.	16A	.
=21	=21	=21	=21
16ff	2r	16d	4BB-
16gg	.	16c#	.
16ff	.	16d	.
16ee	.	16e	.
8dd	.	16f	8r
.	.	16g	.
8ddd	.	16a	8F
.	.	16f	.
=22	=22	=22	=22
16bb-	2r	4d	8.G
16ccc	.	.	.
16bb-	.	.	.
16aa	.	.	16A
16gg	.	8.d	16B-
16aa	.	.	16c
16gg	.	.	16B-
16ff	.	16c	16A
=23	=23	=23	=23
16ee	2r	16B-	16G
16ff	.	16c	16A
16ee	.	16B-	16G
16dd	.	16A	16F
8cc#	.	16G	8E
.	.	16e	.
8aa	.	16c#	8AA
.	.	16e	.
=24	=24	=24	=24
8ff	2dd	8A	8.D
8dd	.	16f#	.
.	.	16g	16E
8r	.	16a	16F#
.	.	16b-	16G
8ff#	.	8cc	8A
=25	=25	=25	=25
8gg	16b-	8r	4G
.	16cc	.	.
8g	16b-	16d	.
.	16a	16c	.
8r	8g	16B-	16GG
.	.	16c	16AA
8dd	8gg	16d	16BB-
.	.	16B-	16GG
=26	=26	=26	=26
8g	16ee-	4c	2C
.	16ff	.	.
8e-	16ee-	.	.
.	16dd	.	.
8r	16cc	4r	.
.	16dd	.	.
16ee-	16cc	.	.
16dd	16b-	.	.
=27	=27	=27	=27
16cc	16a	2r	2D
16dd	16b-	.	.
16cc	16a	.	.
16b-	16g	.	.
16a	8f#	.	.
16g	.	.	.
16f#	8dd	.	.
16a	.	.	.
=28	=28	=28	=28
16g	8b-	2r	4G
16b-	.	.	.
16dd	8g	.	.
16b-	.	.	.
4ee-	8r	.	16r
.	.	.	16G
.	8ee-	.	16B-
.	.	.	16G
=29	=29	=29	=29
16r	8cc	2f	4A
16cc	.	.	.
16ee-	8a	.	.
16cc	.	.	.
4ff	8r	.	16r
.	.	.	16A
.	8ff	.	16c
.	.	.	16A
=30	=30	=30	=30
8r	16ff	16d	4B-
.	16gg	16e-	.
8b-	16ff	16d	.
.	16ee-	16c	.
16ff	8dd	8B-	8r
16ee-	.	.	.
16dd	8ff	8b-	8D
16cc	.	.	.
=31	=31	=31	=31
16b-	8.ee-	16g	2E-
16cc	.	16a	.
16b-	.	16g	.
16a	16dd	16f	.
16g	16cc	16e-	.
16a	16dd	16f	.
16g	16cc	16e-	.
16f	16b-	16d	.
=32	=32	=32	=32
16e-	16a	16c	[2F
16f	16b-	16d	.
16e-	16cc	16c	.
16d	16dd	16B-	.
8c	8ee-	8A	.
8cc	8a	8f	.
=33	=33	=33	=33
8.dd	8.b-	16f	2F]
.	.	16g	.
.	.	16f	.
16ee-	16cc	16e-	.
8ff	8dd	16d	.
.	.	16e-	.
8ff	8dd	16d	.
.	.	16c	.
=34	=34	=34	=34
4.ff	4.dd	16B	[2G
.	.	16c	.
.	.	16B	.
.	.	16A	.
.	.	8G	.
8dd	8b	8g	.
=35	=35	=35	=35
8.ee-	8.cc	16g	2G]
.	.	16a-	.
.	.	16g	.
16ff	16dd	16f	.
8gg	8ee-	16e-	.
.	.	16f	.
8gg	8ee-	16e-	.
.	.	16d	.
=36	=36	=36	=36
4.gg	4.ee	16c#	2A
.	.	16d	.
.	.	16c#	.
.	.	16B	.
.	.	8A	.
8ee	8cc#	8a	.
=37	=37	=37	=37
16ff	4dd	4d	4D
16aa	.	.	.
16bb-	.	.	.
16aa	.	.	.
16bb-	8r	4d	4r
16aa	.	.	.
16gg	[8b-	.	.
16ff	.	.	.
=38	=38	=38	=38
16ee	8b-]	4c#	2r
16ee	.	.	.
16gg	4e	.	.
16bb-	.	.	.
16aa	.	4c	.
16gg	.	.	.
16ff	[8a	.	.
16ee	.	.	.
=39	=39	=39	=39
16dd	8a]	4B	2r
16dd	.	.	.
16ff	4d	.	.
16aa	.	.	.
16gg	.	8B-	.
16ff	.	.	.
16ee	16g	8g	.
16dd	16f	.	.
=40	=40	=40	=40
8.cc#	8.e	16g	2A
.	.	16f	.
.	.	16e	.
16dd	16f	16d	.
16ee	16g	16c#	.
16dd	16f	16d	.
16cc#	16e	16e	.
16ee	16g	16c#	.
=41	=41	=41	=41
4dd	8f	8d	16F
.	.	.	16G
.	16d	8A	16F
.	16e	.	16E
4r	16f	8r	8D
.	16g	.	.
.	8a	8f	8d
=42	=42	=42	=42
2r	8r	8g	16B-
.	.	.	16c
.	16dd	8G	16B-
.	16cc	.	16A
.	16b-	8r	16G
.	16cc	.	16A
.	16b-	8d	16G
.	16a	.	16F
=43	=43	=43	=43
2r	16g	8g	16E
.	16a	.	16F
.	16g	8c#	16E
.	16f	.	16D
.	16e	8r	8C#
.	16f	.	.
.	16g	8c#	8A
.	16e	.	.
=44	=44	=44	=44
2r	16f	4d	8D
.	16e	.	.
.	16f	.	8DD
.	16d	.	.
.	16dd	16f	8r
.	16cc	16e	.
.	16b	16d	8D
.	16a	16c	.
=45	=45	=45	=45
2r	16g#	16B	8E
.	16a	16A	.
.	16b	16G#	8EE
.	16a	16A	.
.	16g#	16B	8r
.	16f	16d	.
.	16e	16c	8E
.	16d	16B	.
=46	=46	=46	=46
2ee	4c	16c	4AA
.	.	16B	.
.	.	16c	.
.	.	16A	.
.	4r	16B	4GG#
.	.	16A	.
.	.	16B	.
.	.	16b	.
=47	=47	=47	=47
16cc	2r	8e	4AA
16dd	.	.	.
16cc	.	16A	.
16b	.	16B	.
8a	.	16c	8r
.	.	16d	.
8aa	.	16e	8C
.	.	16c	.
=48	=48	=48	=48
16ff	2r	8A	8D
16gg	.	.	.
16ff	.	16a	8DD
16ee	.	16g	.
16dd	.	16f	8r
16ee	.	16g	.
16dd	.	16f	8D
16cc	.	16e	.
=49	=49	=49	=49
16b	2r	16d	8E
16cc	.	16e	.
16b	.	16d	8EE
16a	.	16c	.
8g#	.	16B	8r
.	.	16A	.
8ee	.	16G#	8E
.	.	16B	.
=50	=50	=50	=50
16cc	2r	8A	8A
16dd	.	.	.
16cc	.	16e	8AA
16b	.	16d	.
8a	.	16c	8r
.	.	16B	.
8dd	.	8A	8F#
=51	=51	=51	=51
16b-	2r	8G	8G
16cc	.	.	.
16b-	.	16d	8GG
16a	.	16c	.
8g	.	16B-	8r
.	.	16A	.
8cc	.	8G	8E
=52	=52	=52	=52
8a	2cc	16A	4F
.	.	16G	.
8f	.	16A	.
.	.	16B-	.
8r	.	16G	4E
.	.	16e	.
8g	.	16g	.
.	.	16e	.
=53	=53	=53	=53
8f	16a	4c	4F
.	16b-	.	.
8ff	16a	.	.
.	16g	.	.
8r	8f	4r	4AA
8cc	8ff	.	.
=54	=54	=54	=54
4f	16dd	2r	8BB-
.	16ee	.	.
.	16dd	.	16B-
.	16cc	.	16A
4g	16b-	.	16G
.	16cc	.	16A
.	16b-	.	16G
.	16a	.	16F
=55	=55	=55	=55
8r	16g	2r	16E
.	16a	.	16F
8c	16g	.	16E
.	16f	.	16D
16g	8e	.	16C
16f	.	.	16D
16g	8cc	.	16E
16e	.	.	16C
=56	=56	=56	=56
16cc	16a	2f	4F
16dd	16b-	.	.
16cc	16a	.	.
16b-	16g	.	.
16a	[4f	.	4r
16b-	.	.	.
16cc	.	.	.
16a	.	.	.
=57	=57	=57	=57
[4b-	16f]	16d	2r
.	16g	16e-	.
.	16f	16d	.
.	16e-	16c	.
16b-]	4d	8B-	.
16cc	.	.	.
16dd	.	8b-	.
16b-	.	.	.
=58	=58	=58	=58
8.ee-	16b-	16g	2r
.	16cc	16a	.
.	16b-	16g	.
16dd	16a	16f	.
16cc	4g	16e-	.
16dd	.	16f	.
16cc	.	16e-	.
16b-	.	16d	.
=59	=59	=59	=59
16a	8.f#	16c	2D
16b-	.	16d	.
16a	.	16c	.
16g	16g	16B-	.
16f#	16a	8A	.
16g	16b-	.	.
16a	16cc	8d	.
16f#	16a	.	.
=60	=60	=60	=60
8g	16dd	2d	16BB-
.	16ee-	.	16C
8gg	16dd	.	16BB-
.	16cc	.	16AA
16r	8b-	.	8GG
16b-	.	.	.
16dd	8G	.	8G
16b-	.	.	.
=61	=61	=61	=61
8cc	4r	2r	16E-
.	.	.	16F
8g	.	.	16E-
.	.	.	16D
16r	8cc	.	16C
16ff	.	.	16D
16ee-	8g	.	16C
16dd	.	.	16BB-
=62	=62	=62	=62
16cc	16r	2d	16AA
16dd	16G	.	16BB-
16cc	16A	.	16AA
16b-	16B-	.	16GG
8a	16c	.	8FF#
.	16A	.	.
8d	16f#	.	8D
.	16d	.	.
=63	=63	=63	=63
8r	8b-	16B-	8GG
.	.	16c	.
8b-	16g	16B-	8E-
.	16a	16A	.
8ee-	16b-	8G	8r
.	16a	.	.
8e-	16g	16e-	8GG
.	16f	16d	.
=64	=64	=64	=64
8r	8e-	16c	8AA
.	.	16d	.
8cc	16a	16c	8F
.	16b-	16B-	.
8ff	16cc	8A	8r
.	16b-	.	.
8f	16a	16f	8AA
.	16g	16e-	.
=65	=65	=65	=65
8r	4f	4d	4BB-
16dd	.	.	.
16cc	.	.	.
16b-	8r	8r	4r
16a	.	.	.
16g	8e-	8c	.
16f#	.	.	.
=66	=66	=66	=66
8g	4d	4B-	2r
16dd	.	.	.
16cc	.	.	.
16b-	8r	8r	.
16a	.	.	.
16g	8e-	8c	.
16f#	.	.	.
=67	=67	=67	=67
16g	4d	4B-	2r
16b-	.	.	.
16dd	.	.	.
16gg	.	.	.
16bb-	8r	8r	.
16aa	.	.	.
16gg	8dd	8B	.
16ff	.	.	.
=68	=68	=68	=68
16ee	[2cc	4c	2r
16cc	.	.	.
16ee	.	.	.
16gg	.	.	.
16bb-	.	8e	.
16gg	.	.	.
16aa	.	8f	.
16ff	.	.	.
=69	=69	=69	=69
16ee	2cc_	4c	2r
16cc	.	.	.
16ee	.	.	.
16gg	.	.	.
16bb-	.	8e	.
16gg	.	.	.
16aa	.	8f	.
16ff	.	.	.
=70	=70	=70	=70
4ee	16cc]	4c	2r
.	16c	.	.
.	16e	.	.
.	16g	.	.
4r	16b-	8E	.
.	16g	.	.
.	16a	8F	.
.	16f	.	.
=71	=71	=71	=71
2r	16e	4C	2r
.	16c	.	.
.	16e	.	.
.	16g	.	.
.	16b-	8E	.
.	16g	.	.
.	16a	8F	.
.	16f	.	.
=72	=72	=72	=72
2r	4e	4G	2C
.	4r	4r	.
=73	=73	=73	=73
2r	2r	2r	16AA
.	.	.	16BB-
.	.	.	16AA
.	.	.	16GG
.	.	.	8FF
.	.	.	8F
=74	=74	=74	=74
2r	2r	2F	16D
.	.	.	16E
.	.	.	16D
.	.	.	16C
.	.	.	16BB-
.	.	.	16C
.	.	.	16BB-
.	.	.	16AA
=75	=75	=75	=75
2r	2cc	16E	16GG
.	.	16F	16AA
.	.	16E	16GG
.	.	16D	16FF
.	.	8C	16EE
.	.	.	16DD
.	.	8c	16EE
.	.	.	16CC
=76	=76	=76	=76
2r	16a	16c	2FF
.	16b-	16d	.
.	16a	16c	.
.	16g	16B-	.
.	8f	16A	.
.	.	16B-	.
.	8ff	16c	.
.	.	16A	.
=77	=77	=77	=77
2ff	16dd	4B-	8.BB-
.	16ee	.	.
.	16dd	.	.
.	16cc	.	16C
.	16b-	4r	8.D
.	16cc	.	.
.	16b-	.	.
.	16a	.	16BB
=78	=78	=78	=78
16ee	16g	2r	[4C
16ff	16a	.	.
16ee	16g	.	.
16dd	16f	.	.
8cc	16e	.	16C]
.	16f	.	16D
8ccc	16g	.	16E
.	16e	.	16C
=79	=79	=79	=79
16aa	4f	2cc	8F
16bb-	.	.	.
16aa	.	.	8FF
16gg	.	.	.
16ff	8a	.	8r
16gg	.	.	.
16ff	8A	.	8F
16ee	.	.	.
=80	=80	=80	=80
16dd	8r	16b-	8B-
16ee	.	16cc	.
16dd	8f	16b-	8BB-
16cc	.	16a	.
8b-	8dd	16g	8r
.	.	16a	.
8bb-	8d	16g	8B-
.	.	16f	.
=81	=81	=81	=81
16gg	8r	16e	8E
16aa	.	16f	.
16gg	8B-	16e	8EE
16ff	.	16d	.
16ee	8g	8c	8r
16ff	.	.	.
16ee	8G	8cc	8E
16dd	.	.	.
=82	=82	=82	=82
16cc	8r	16a	8A
16dd	.	16b-	.
16cc	8e	16a	8AA
16b-	.	16g	.
8a	8cc	16f	8r
.	.	16g	.
8aa	8c	16f	8A
.	.	16e	.
=83	=83	=83	=83
16ff	8r	16d	8D
16gg	.	16e	.
16ff	8a	16d	8DD
16ee	.	16c	.
16dd	8ff	8B-	8r
16ee	.	.	.
16dd	8f	8b-	8D
16cc	.	.	.
=84	=84	=84	=84
16b-	8r	16g	8G
16cc	.	16a	.
16b-	8d	16g	8GG
16a	.	16f	.
8g	8b-	16e	8r
.	.	16f	.
8gg	8B-	16e	8G
.	.	16d	.
=85	=85	=85	=85
16ee	2g	4c	8C
16ff	.	.	.
16ee	.	.	8CC
16dd	.	.	.
16cc	.	4r	8r
16dd	.	.	.
16cc	.	.	8C
16b-	.	.	.
=86	=86	=86	=86
4a	16f	2r	4F
.	16g	.	.
.	16f	.	.
.	16e	.	.
8.b	8d	.	4G
.	8g	.	.
32a	.	.	.
32b	.	.	.
=87	=87	=87	=87
8cc	16e	2c	4C
.	16g	.	.
8c	16cc	.	.
.	16g	.	.
8r	16ee	.	4r
.	16dd	.	.
8ee	16cc	.	.
.	16b-	.	.
=88	=88	=88	=88
8ff	8a	16d	2r
.	.	16c	.
8f	16f	16d	.
.	16g	16e	.
8r	16a	8f	.
.	16b-	.	.
8a	16cc	8F	.
.	16a	.	.
=89	=89	=89	=89
8cc	16f	16A	2r
.	16e	16G	.
8c	16f	16A	.
.	16g	16B-	.
8r	16a	16c	.
.	16g	16B-	.
8ff	16a	16c	.
.	16b	16d	.
=90	=90	=90	=90
16ee	4cc	16e	2r
16ff	.	16d	.
16gg	.	16e	.
16aa	.	16f	.
8dd	16b	8g	.
.	16cc	.	.
8gg	16dd	8B	.
.	16f	.	.
=91	=91	=91	=91
16cc	16e	8c	2r
16dd	16f	.	.
16ee	16g	16B-	.
16ff	16a	16A	.
8b-	8d	16G	.
.	.	16F	.
8cc	16g	16E	.
.	16e	16C	.
=92	=92	=92	=92
8a	4f	8F	2FF
8aa	.	8f	.
8aa	4r	8f	.
8aa	.	8f	.
=93	=93	=93	=93
8.aa	2r	8.f	16AA
.	.	.	16GG
.	.	.	16AA
32gg	.	32e	16BB-
32aa	.	32f	.
4gg	.	4e	8C
.	.	.	8CC
=94	=94	=94	=94
2r	2cc	16g	16EE
.	.	16f	16DD
.	.	16g	16EE
.	.	16a	16FF
.	.	16e	16GG
.	.	16d	16FF
.	.	16e	16GG
.	.	16f	16AA
=95	=95	=95	=95
2ff	16dd	8.f	16BB-
.	16cc	.	16AA
.	16dd	.	16BB-
.	16ee	16b-	16C
.	8ff	16a	8D
.	.	16g	.
.	8f	16f	8DD
.	.	16e	.
=96	=96	=96	=96
16aa	8r	8d	8r
16gg	.	.	.
16aa	8f	8G	8GG
16bb	.	.	.
8ccc	16e	16G	4C
.	16d	16F	.
8cc	16e	16G	.
.	16c	16E	.
=97	=97	=97	=97
16ee	16cc	8C	2r
16dd	16b	.	.
16ee	16cc	8c	.
16ff	16dd	.	.
16gg	16ee	8.B-	.
16ff	16dd	.	.
16gg	16ee	.	.
16aa	16ff	16A	.
=98	=98	=98	=98
16bb-	[4gg	16G	2r
16aa	.	16F	.
16bb-	.	16G	.
16ccc	.	16A	.
8ddd	16gg]	8B-	.
.	16dd	.	.
8ee	16cc	8c	.
.	16b-	.	.
=99	=99	=99	=99
8ff	4a	8c	2F
8cc	.	8F	.
8a	4r	8r	.
8f	.	8a	.
=100	=100	=100	=100
8r	2r	8b-	16D
.	.	.	16E-
8ff	.	8B-	16D
.	.	.	16C
8dd	.	8r	8BB-
8b-	.	8d	8B-
=101	=101	=101	=101
2r	2f	16c	16A
.	.	16d	16B-
.	.	16c	16A
.	.	16B-	16G
.	.	8A	8F
.	.	8c	8AA
=102	=102	=102	=102
2r	16d	8F	16BB-
.	16e-	.	16AA
.	16d	16f	16BB-
.	16c	16e-	16C
.	8B-	16d	8D
.	.	16e-	.
.	8b-	16f	8BB-
.	.	16d	.
=103	=103	=103	=103
2ff	16a	16c	8F
.	16b-	16d	.
.	16a	16c	8FF
.	16g	16B-	.
.	8f	4A	8r
.	8cc	.	8F
=104	=104	=104	=104
16dd	8b-	2f	8B-
16ee-	.	.	.
16dd	16f	.	8BB-
16cc	16e-	.	.
8b-	8d	.	4r
8bb-	8dd	.	.
=105	=105	=105	=105
8aa	16cc	16e-	8r
.	16dd	16f	.
8f	16cc	16e-	8F
.	16b-	16d	.
8r	16a	16c	8F
.	16b-	16d	.
8aa	16cc	16e-	8FF
.	16a	16c	.
=106	=106	=106	=106
8bb-	16dd	16f	8r
.	16ee-	16g	.
8f	16dd	16f	8F
.	16cc	16e-	.
8r	16b-	16d	8F
.	16cc	16e-	.
8bb-	16dd	16f	8FF
.	16b-	16d	.
=107	=107	=107	=107
8ccc	16ee-	16c	8r
.	16dd	16B-	.
8f	16cc	16A	8F
.	16b-	16B-	.
8r	16a	16c	8F
.	16b-	16d	.
8ccc	16cc	8e-	8FF
.	16a	.	.
=108	=108	=108	=108
8ddd	16b-	16d	4F
.	16cc	16e-	.
8bb-	16dd	16f	.
.	16b-	16d	.
8eee-	16cc	16A	4FF
.	16dd	16B-	.
8ee-	16ee-	16c	.
.	16cc	16A	.
=109	=109	=109	=109
8dd	16b-	16d	4F
.	16cc	16e-	.
8ddd	16dd	16f	.
.	16b-	16d	.
8ccc	16a	16f	4FF
.	16b-	16g	.
8ff	16cc	16a	.
.	16a	16f	.
=110	=110	=110	=110
8dd	16b-	16g	4BB-
.	16cc	16a	.
8gg	16dd	16b-	.
.	16b-	16g	.
8g	16g	16e	4C
.	16a	16f	.
8ee	16b-	16g	.
.	16g	16e	.
=111	=111	=111	=111
2f	2f	2f	2F
=112	=112	=112	=112
16e	16e	16e	16E
16f	16f	16f	16F
16e	16e	16e	16E
16d	16d	16d	16D
8c	8c	8c	8C
8cc	8cc	8cc	8c
=113	=113	=113	=113
16a	16a	16a	16A
16b-	16b-	16b-	16B-
16a	16a	16a	16A
16g	16g	16g	16G
8f	8f	8f	8F
8ff	8ff	8ff	8f
=114	=114	=114	=114
16dd	16dd	16dd	16d
16ee	16ee	16ee	16e
16dd	16dd	16dd	16d
16cc	16cc	16cc	16c
16b-	16b-	16b-	16B-
16cc	16cc	16cc	16c
16b-	16b-	16b-	16B-
16a	16a	16a	16A
=115	=115	=115	=115
16g	16g	16g	16G
16a	16a	16a	16A
16g	16g	16g	16G
16f	16f	16f	16F
8e	8e	8e	8E
8cc	8cc	8cc	8c
=116	=116	=116	=116
16a	16a	16a	16A
16b-	16b-	16b-	16B-
16a	16a	16a	16A
16g	16g	16g	16G
16f	16f	16f	16F
16g	16g	16g	16G
16f	16f	16f	16F
16e	16e	16e	16E
=117	=117	=117	=117
16d	16d	16d	16D
16e	16e	16e	16E
16d	16d	16d	16D
16c	16c	16c	16C
16B-	16B-	16B-	16BB-
16c	16c	16c	16C
16B-	16B-	16B-	16BB-
16A	16A	16A	16AA
=118	=118	=118	=118
4G	4G	4G	4GG
4ee 4cc 4g	4cc 4e 4G	4c	4C
=119	=119	=119	=119
4ff 4cc 4f	4cc 4f 4A	4c	4FF
4r	4r	4r	4r
==	==	==	==
*-	*-	*-	*-
!!!RWG1: This file contains only pitch and duration data.
!!!RWG2: Transposing instruments are not transposed.
!!!RWG3: Spines may have incompatible meters.
!!!RWG4: Durations of rests and tied notes may be interpreted.
!!!RWG: Key is interpreted using the Humdrum key tool.
!!!AFT: stage1
!!!END: 1997/04/15
!!format changes:
!!content changes:
!!public access: complete
!!!KEY: 130412197
!!!EMD: Converted from MuseData to Humdrum Dec 16, 2000, by Andreas Kornstaedt using muse2kern.
